src/icons/SVG/32px/Navigation_Arrow_Down_32px.svg

<svg width="32" height="32" viewBox="0 0 32 32" fill="none" xmlns="http://www.w3.org/2000/svg">
  <g id="Square"> </g>
  <g id="Icon">
<path id="Vector" d="M17 4C17 3.44772 16.5523 3 16 3C15.4477 3 15 3.44772 15 4H17ZM16 28L15.2929 28.7071C15.6834 29.0976 16.3166 29.0976 16.7071 28.7071L16 28ZM24.7071 20.7071C25.0976 20.3166 25.0976 19.6834 24.7071 19.2929C24.3166 18.9024 23.6834 18.9024 23.2929 19.2929L24.7071 20.7071ZM8.70711 19.2929C8.31658 18.9024 7.68342 18.9024 7.29289 19.2929C6.90237 19.6834 6.90237 20.3166 7.29289 20.7071L8.70711 19.2929ZM15 4V28H17V4H15ZM16.7071 28.7071L24.7071 20.7071L23.2929 19.2929L15.2929 27.2929L16.7071 28.7071ZM16.7071 27.2929L8.70711 19.2929L7.29289 20.7071L15.2929 28.7071L16.7071 27.2929Z" fill="black"/>
</g>
</svg>

<svg xmlns="http://www.w3.org/2000/svg" viewBox="0 0 32 32">
  <g id="Square"> </g>
  <path d="M17 4a1 1 0 10-2 0h2zm-1 24l-.707.707a1 1 0 001.414 0L16 28zm8.707-7.293a1 1 0 00-1.414-1.414l1.414 1.414zm-16-1.414a1 1 0 00-1.414 1.414l1.414-1.414zM15 4v24h2V4h-2zm1.707 24.707l8-8-1.414-1.414-8 8 1.414 1.414zm0-1.414l-8-8-1.414 1.414 8 8 1.414-1.414z"/>
</svg>
